img/VR.svg

<svg width="97" height="55" viewBox="0 0 97 55" fill="none" xmlns="http://www.w3.org/2000/svg">
<path d="M84.1314 32.639V20.003C84.1314 18.694 85.1764 17.633 86.4664 17.633L94.7924 19.214V11.02C94.7924 8.66497 93.0844 7.58897 90.5904 6.75497L67.4034 0.174968C69.0194 1.56597 69.2924 2.21497 69.2924 4.57097V49.78C69.2924 52.136 68.8424 53.846 67.3254 54.99L90.5904 47.925C92.9914 47.092 94.7924 43.709 94.7924 41.353V33.44L86.4664 35.007C85.1764 35.009 84.1314 33.947 84.1314 32.639Z" fill="#363636"/>
<path d="M95.1294 20.979L87.5314 19.535C86.5234 19.535 85.7074 20.364 85.7074 21.386V31.254C85.7074 32.277 86.5234 33.106 87.5314 33.106L95.1294 31.675C96.2834 31.256 96.9534 30.846 96.9534 29.823V22.83C96.9534 21.808 96.1874 21.323 95.1294 20.979Z" fill="#363636"/>
<path d="M67.1704 4.48297C67.1704 -0.597033 62.9384 0.0239677 62.9384 0.0239677C62.9384 0.0239677 5.83241 4.73797 2.83841 5.14497C-0.155585 5.55197 0.00141458 9.53197 0.00141458 9.53197C0.00141458 9.53197 0.000414578 42.069 0.000414578 45.812C0.000414578 49.555 2.59941 49.565 2.59941 49.565L19.0764 50.968L27.2124 39.3C27.2124 39.3 28.3214 37.472 29.7174 37.472C31.1144 37.472 32.1494 39.333 32.1494 39.333L41.2104 52.854C41.2104 52.854 60.1054 54.763 63.7314 54.763C67.3574 54.762 67.1704 49.739 67.1704 49.739C67.1704 49.739 67.1704 9.56297 67.1704 4.48297ZM12.9824 37.192C9.28442 37.192 6.28641 32.591 6.28641 26.917C6.28641 21.243 9.28442 16.642 12.9824 16.642C16.6804 16.642 19.6784 21.243 19.6784 26.917C19.6784 32.591 16.6804 37.192 12.9824 37.192ZM49.1404 38.618C44.4784 38.618 40.6994 33.379 40.6994 26.917C40.6994 20.454 44.4794 15.215 49.1404 15.215C53.8024 15.215 57.5824 20.454 57.5824 26.917C57.5824 33.379 53.8024 38.618 49.1404 38.618Z" fill="#363636"/>
</svg>

<svg width="97" height="55" fill="none" xmlns="http://www.w3.org/2000/svg"><path d="M84.13 32.64V20c0-1.3 1.05-2.37 2.34-2.37l8.32 1.58v-8.19c0-2.36-1.7-3.43-4.2-4.27L67.4.17c1.62 1.4 1.9 2.04 1.9 4.4v45.21c0 2.36-.46 4.07-1.97 5.21l23.26-7.07c2.4-.83 4.2-4.21 4.2-6.57v-7.91l-8.32 1.57a2.35 2.35 0 0 1-2.34-2.37Z" fill="#363636"/><path d="m95.13 20.98-7.6-1.45c-1 0-1.82.83-1.82 1.86v9.86c0 1.03.81 1.86 1.82 1.86l7.6-1.43c1.15-.42 1.82-.83 1.82-1.86v-6.99c0-1.02-.76-1.5-1.82-1.85ZM67.17 4.48c0-5.08-4.23-4.46-4.23-4.46S5.84 4.74 2.84 5.14C-.16 5.55 0 9.54 0 9.54V45.8c0 3.74 2.6 3.75 2.6 3.75l16.48 1.4L27.2 39.3s1.11-1.83 2.5-1.83c1.4 0 2.44 1.86 2.44 1.86l9.06 13.52s18.9 1.91 22.52 1.91c3.63 0 3.44-5.02 3.44-5.02V4.48ZM12.98 37.2c-3.7 0-6.7-4.6-6.7-10.27 0-5.68 3-10.28 6.7-10.28s6.7 4.6 6.7 10.28c0 5.67-3 10.27-6.7 10.27Zm36.16 1.43c-4.66 0-8.44-5.24-8.44-11.7 0-6.47 3.78-11.7 8.44-11.7s8.44 5.23 8.44 11.7c0 6.46-3.78 11.7-8.44 11.7Z" fill="#363636"/></svg>
